X: 3369
M: 2/4
L: 1/16
K: Bm
f2 |\
d2cd e2de | f2a2c2 (BA) | B2b2 fedc | B4-B2 :|
|: A2 |\
d3dd2A2 | defg afed | c2A2e2A2 | cdef e2c2 |\
d2cd e2de | f2a2c2 (BA) | B2b2 fedc | B4-B2 :|


